assets/img/covid/travel.svg

<svg width="76" height="73" viewBox="0 0 76 73" fill="none" xmlns="http://www.w3.org/2000/svg">
<g clip-path="url(#clip0)">
<path d="M64.7116 53.335L68.1823 55.546C66.2443 58.367 63.8861 60.9039 61.182 63.0768V55.5796L64.7116 53.335Z" fill="#C74841"/>
<path d="M32.9454 20.7874V25.2767H30.5923L29.4158 23.032L32.9454 20.7874Z" fill="#C74841"/>
<path d="M68.2411 30.8882L69.4177 29.7659L68.2411 26.3989L62.3585 21.9096V20.7872H57.6524L52.9463 21.9096H48.2402L47.0637 19.6649H41.1811L38.828 23.0319H43.5341L44.7106 25.2766L41.1811 26.3989H38.828L32.9454 32.0106V35.3776H34.1219L38.828 30.8882H41.1811L43.5341 35.3776H47.0637V37.6222H45.8872H41.1811L40.0045 36.4999H37.6515L30.5923 42.1116V46.6009L32.9454 48.8456H38.828V49.9679L40.0045 52.2126V55.5796L41.1811 61.1912H45.8872L49.4167 55.5796V54.4572L48.2402 52.2126L51.7698 49.9679V47.7232H45.8872V40.9892H48.2402L49.4167 44.3562H52.9463V40.9892L51.7698 38.7446L56.4759 39.8669V44.3562H57.6524L61.182 40.9892L62.3585 45.4786V49.9679H64.7116V45.4786H67.0646V44.3562L64.7116 42.1116H65.8881L67.0646 38.7446V36.4999H69.4177V33.1329L68.2411 32.0106V30.8882Z" fill="#C74841"/>
<path d="M21.1801 15.1756L16.474 16.2979L9.41489 21.9096L4.70879 26.3989V28.6436H7.06184V38.7446L9.50901 40.2934L10.5914 40.9892L14.121 45.4786V49.9679L16.474 51.0902L17.6506 57.8242H20.0036L23.5332 53.3349V51.0902L24.7097 48.8456L21.1801 45.4786L18.8271 42.1116H15.2975H14.121L12.9445 38.7446H10.5914V36.4999H14.121V34.2552L15.2975 33.1329L16.474 32.0106V29.7659L20.0036 28.6436V27.5212L18.8271 25.2766H15.2975L14.121 27.5212L11.7679 26.3989L12.9445 24.1542L14.121 23.0319L15.2975 21.9096L16.474 23.0319L18.8271 21.9096V19.6649L17.6506 18.5426H20.0036H22.3567V21.9096V24.1542H24.7097V21.9096L28.2393 20.7873L31.7689 16.2979V15.1756L32.9454 14.0533V11.8086L21.1801 15.1756Z" fill="#C74841"/>
<path d="M1.17921 36.5C1.18129 31.0826 2.50944 25.7406 5.05789 20.8994C7.60634 16.0581 11.3047 11.8515 15.8583 8.61449C20.4119 5.37749 25.695 3.19956 31.2868 2.2542C36.8786 1.30883 42.6245 1.62215 48.0669 3.16919C53.5094 4.71622 58.4979 7.45424 62.6352 11.1651C66.7725 14.8761 69.9443 19.4573 71.8978 24.544C73.8514 29.6307 74.5328 35.0823 73.8877 40.4646C73.2427 45.8469 71.289 51.0111 68.1823 55.5459L64.7116 53.3349L61.182 55.5796V63.0768C55.8705 67.3552 49.3879 70.0965 42.4978 70.9776C35.6077 71.8588 28.5971 70.8432 22.2918 68.0504C15.9866 65.2577 10.6494 60.8041 6.90887 55.2144C3.16838 49.6246 1.18043 43.1315 1.17921 36.5ZM28.2393 20.7873L31.7689 16.298V15.1756L32.9454 14.0533V11.8086L21.1801 15.1756L16.474 16.298L9.41489 21.9096L4.70879 26.399V28.6436H7.06184V38.7446L9.50901 40.2934L10.5914 40.9893L14.121 45.4786V49.9679L16.474 51.0903L17.6506 57.8243H20.0036L23.5332 53.3349V51.0903L24.7097 48.8456L21.1801 45.4786L18.8271 42.1116H14.121L12.9445 38.7446H10.5914V36.5H14.121V34.2553L15.2975 33.133L16.474 32.0106V29.766L20.0036 28.6436V27.5213L18.8271 25.2766H15.2975L14.121 27.5213L11.7679 26.399L12.9445 24.1543L14.121 23.032L15.2975 21.9096L16.474 23.032L18.8271 21.9096V19.665L17.6506 18.5426H22.3567V24.1543H24.7097V21.9096L28.2393 20.7873ZM29.4158 23.032L30.5923 25.2766H32.9454V20.7873L29.4158 23.032ZM51.7698 47.7233H45.8872V40.9893H48.2402L49.4167 44.3563H52.9463V40.9893L51.7698 38.7446L56.4759 39.8669V44.3563H57.6524L61.182 40.9893L62.3585 45.4786V49.9679H64.7116V45.4786H67.0646V44.3563L64.7116 42.1116H65.8881L67.0646 38.7446V36.5H69.4177V33.133L68.2411 32.0106V30.8883L69.4177 29.766L68.2411 26.399L62.3585 21.9096V20.7873H57.6524L52.9463 21.9096H48.2402L47.0637 19.665H41.1811L38.828 23.032H43.5341L44.7106 25.2766L41.1811 26.399H38.828L32.9454 32.0106V35.3776H34.1219L38.828 30.8883H41.1811L43.5341 35.3776H47.0637V37.6223H41.1811L40.0045 36.5H37.6515L30.5923 42.1116V46.6009L32.9454 48.8456H38.828V49.9679L40.0045 52.2126V55.5796L41.1811 61.1913H45.8872L49.4167 55.5796V54.4573L48.2402 52.2126L51.7698 49.9679V47.7233Z" fill="#34C1AD"/>
<path d="M61.182 57.3641V63.0768C63.8861 60.9038 66.2443 58.367 68.1823 55.546L66.6905 54.5953C64.9409 55.6671 63.0979 56.5934 61.182 57.3641Z" fill="#AD3A34"/>
<path d="M45.8872 61.1912L46.6001 60.0576C44.6676 60.0346 42.7399 59.8661 40.8352 59.5537L41.1811 61.1912H45.8872Z" fill="#AD3A34"/>
<path d="M4.70879 26.399V28.6437H7.06184V38.7446L9.50901 40.2935L10.5914 40.9893L14.121 45.4786V49.968L16.474 51.0903L17.6506 57.8243H20.0036L23.5332 53.335V51.8512C20.1412 49.1166 17.2987 45.8164 15.1446 42.1116H14.121L12.9445 38.7446H10.5914V36.5H12.5421C10.7244 31.4311 10.1665 26.0286 10.9126 20.7189L9.41489 21.9097L4.70879 26.399Z" fill="#AD3A34"/>
<path d="M10.5914 38.7447H12.9445L14.121 42.1117H15.1446C14.1043 40.3184 13.2334 38.4405 12.5421 36.5H10.5914V38.7447Z" fill="#21ABAB"/>
<path d="M47.0637 60.069C46.9084 60.069 46.7554 60.06 46.6001 60.0577L45.8872 61.1913H41.1811L40.8375 59.5538C34.4526 58.5042 28.4781 55.8448 23.5332 51.8512V53.335L20.0036 57.8243H17.6506L16.474 51.0903L14.121 49.968V45.4786L10.5914 40.9893L9.50901 40.2935L7.06184 38.7446V28.6437H4.70879V26.399L9.41489 21.9097L10.9126 20.7189C11.4419 16.853 12.6532 13.1004 14.4951 9.62012C10.7409 12.5216 7.62848 16.1057 5.33857 20.1643C3.04866 24.2229 1.62692 28.6751 1.15595 33.2622C0.684969 37.8494 1.17414 42.4801 2.59503 46.8854C4.01593 51.2907 6.34024 55.3828 9.43296 58.924C12.5257 62.4651 16.3251 65.3848 20.6107 67.5134C24.8962 69.642 29.5824 70.9371 34.3971 71.3235C39.2118 71.7099 44.0589 71.1798 48.657 69.7641C53.2551 68.3484 57.5126 66.0753 61.182 63.0768V57.3641C56.712 59.1547 51.9118 60.0744 47.0637 60.069Z" fill="#21ABAB"/>
<path d="M68.1823 55.5459C68.9205 54.4578 69.5942 53.3311 70.2 52.171C69.0811 53.0442 67.9093 53.8537 66.6905 54.5953L68.1823 55.5459Z" fill="#21ABAB"/>
<path d="M50.2285 11.8086H43.5341V8.44165C47.8284 8.49777 49.5814 10.5965 50.2285 11.8086Z" fill="#96E0FF"/>
<path d="M23.8273 9.1936L19.7095 1.70764H23.8273L32.663 8.83445C29.8158 8.98035 26.7569 9.13748 23.8273 9.29461V9.1936Z" fill="#D4D4D4"/>
<path d="M43.5341 11.8086H50.2285C50.3867 12.0734 50.5092 12.3563 50.5933 12.6503C50.5933 12.6503 50.5933 15.1756 46.4754 15.1756H37.7927L24.6156 24.1542H19.1212L26.8157 15.1756H6.72065C5.8079 15.2218 4.90625 14.9671 4.16713 14.4541C3.42801 13.9412 2.89642 13.2012 2.66164 12.3585L1.17921 5.07458H4.26171L9.41489 10.1251C9.41489 10.1251 16.2034 9.70982 23.8273 9.29456C26.7569 9.13743 29.8158 8.9803 32.663 8.8344C37.3456 8.60993 41.4281 8.44158 43.3812 8.44158H43.5341V11.8086Z" fill="#E3E3E3"/>
<path d="M13.6504 18.5427H17.6506H20.0036H22.3567H23.2861L22.3567 19.6268V20.3788L26.8157 15.1757H21.1801L16.474 16.298L13.6504 18.5427Z" fill="#AD3A34"/>
<path d="M17.5153 25.2766L15.5916 27.5213H20.0036L18.8271 25.2766H17.5153Z" fill="#AD3A34"/>
<path d="M16.474 16.298L21.1801 15.1757H8.84428C7.96398 16.2515 7.15077 17.3757 6.40887 18.5427H13.6504L16.474 16.298Z" fill="#21ABAB"/>
<path d="M24.6156 24.1543H19.1212L22.3567 20.3787V19.6268L17.5153 25.2766H18.8271L20.0036 27.5213H21.086L34.2631 18.5426H42.9459C47.0637 18.5426 47.0637 16.0174 47.0637 16.0174C46.9796 15.7233 46.8571 15.4405 46.699 15.1756V15.1666C46.6237 15.1666 46.5578 15.1756 46.4801 15.1756H37.7927L24.7097 24.0903V24.1543H24.6156Z" fill="#21ABAB"/>
<path d="M27.1451 7.3193C26.7577 7.31924 26.3763 7.22792 26.0348 7.05348C25.6933 6.87903 25.4022 6.62684 25.1874 6.31931L21.9649 1.70764H19.7095L23.8273 9.1936V9.29461C26.7569 9.13748 29.8158 8.98035 32.663 8.83445L30.7841 7.3193H27.1451Z" fill="#BFBFBF"/>
<path d="M7.46421 14.0532C6.67721 14.0532 5.91281 13.8022 5.29249 13.3402C4.67217 12.8781 4.2315 12.2316 4.04052 11.5033L2.35574 5.07458H1.17921L2.66164 12.3585C2.89642 13.2012 3.42801 13.9412 4.16713 14.4541C4.90625 14.9671 5.8079 15.2218 6.72065 15.1756H26.671L28.2393 14.0532H7.46421Z" fill="#BFBFBF"/>
<path d="M48.2402 14.0533H38.828L37.6515 15.1756L37.6727 15.2575L37.7903 15.1756H46.4754C50.5933 15.1756 50.5933 12.6503 50.5933 12.6503C50.5933 12.6503 50.5674 12.5493 50.505 12.3866C50.3719 12.8632 50.0779 13.2846 49.6686 13.5859C49.2592 13.8871 48.7572 14.0514 48.2402 14.0533Z" fill="#BFBFBF"/>
<path d="M45.8872 10.6863H49.4167C48.1919 9.42346 46.5095 8.65228 44.7106 8.52917V9.56397C44.7106 9.86163 44.8346 10.1471 45.0552 10.3576C45.2759 10.5681 45.5751 10.6863 45.8872 10.6863Z" fill="#B3F5FF"/>
</g>
<defs>
<clipPath id="clip0">
<rect width="75.2976" height="71.8293" fill="white" transform="translate(0.00268555 0.585327)"/>
</clipPath>
</defs>
</svg>

<svg xmlns="http://www.w3.org/2000/svg" width="76" height="73" fill="none" xmlns:v="https://vecta.io/nano"><g clip-path="url(#A)"><g fill="#c74841"><path d="M64.712 53.335l3.47 2.2c-1.938 2.82-4.296 5.358-7 7.53V55.58l3.53-2.245zM32.945 20.787v4.5h-2.353l-1.177-2.245 3.53-2.245zm35.295 10.1l1.177-1.122L68.24 26.4l-5.88-4.5v-1.122h-4.706L52.946 21.9H48.24l-1.177-2.245H41.18l-2.353 3.367h4.706l1.176 2.245-3.53 1.122h-2.353L32.943 32v3.367h1.176l4.706-4.5h2.353l2.353 4.5h3.53v2.245h-5.88L40.005 36.5h-2.353l-7.06 5.612v4.5l2.353 2.245h5.883v1.122l1.176 2.245v3.367l1.177 5.612h4.706l3.53-5.612V54.46l-1.176-2.245 3.53-2.245v-2.245h-5.883V41h2.353l1.176 3.367h3.53V41l-1.177-2.245 4.706 1.122v4.5h1.176L61.182 41l1.176 4.5v4.5h2.353v-4.5h2.353v-1.122l-2.353-2.245h1.176l1.177-3.367V36.5h2.353v-3.367L68.24 32v-1.122zM21.18 15.176l-4.706 1.122-7.06 5.612L4.7 26.4v2.245h2.353v10.1l2.447 1.55 1.082.696 3.53 4.5v4.5l2.353 1.122 1.177 6.734h2.353l3.53-4.5V51.1l1.177-2.245-3.53-3.367-2.353-3.367h-4.71l-1.177-3.367H10.6V36.5h3.53v-2.245L16.473 32v-2.245l3.53-1.122V27.52l-1.176-2.245h-3.53L14.12 27.52l-2.352-1.12 1.177-2.245 2.353-2.245 1.177 1.122 2.353-1.122v-2.245l-1.177-1.122h4.706v5.612H24.7V21.9l3.53-1.122 3.53-4.5v-1.122l1.177-1.122V11.8L21.18 15.176z"/></g><path d="M1.18 36.5c.002-5.417 1.33-10.76 3.88-15.6s6.247-9.048 10.8-12.285 9.837-5.415 15.43-6.36a38.17 38.17 0 0 1 16.78.915c5.443 1.547 10.43 4.285 14.568 7.996s7.31 8.292 9.263 13.38a33.3 33.3 0 0 1 1.99 15.921c-.645 5.382-2.6 10.547-5.705 15.08l-3.47-2.21-3.53 2.245v7.497c-5.312 4.278-11.794 7.02-18.684 7.9s-13.9-.134-20.206-2.927S10.65 60.804 6.91 55.214 1.18 43.132 1.18 36.5zm27.06-15.713l3.53-4.49v-1.122l1.177-1.122V11.81L21.18 15.176l-4.706 1.122-7.06 5.612L4.71 26.4v2.245h2.353v10.1l2.447 1.55 1.082.696 3.53 4.49v4.49l2.353 1.122 1.177 6.734h2.353l3.53-4.49V51.1l1.177-2.245-3.53-3.367-2.353-3.367H14.12l-1.177-3.367H10.59V36.5h3.53v-2.245l2.353-2.245v-2.245l3.53-1.122V27.52l-1.176-2.245h-3.53L14.12 27.52 11.768 26.4l1.177-2.245 2.353-2.245 1.177 1.122 2.353-1.122v-2.245l-1.177-1.122h4.706v5.612H24.7V21.9l3.53-1.122zm1.177 2.245l1.177 2.245h2.353v-4.49l-3.53 2.245zm22.354 24.69h-5.883V40.99h2.353l1.176 3.367h3.53V40.99l-1.177-2.245 4.706 1.122v4.49h1.176l3.53-3.367 1.176 4.49v4.49h2.353v-4.49h2.353v-1.122l-2.353-2.245h1.176l1.177-3.367V36.5h2.353v-3.367L68.24 32.01v-1.122l1.177-1.122L68.24 26.4 62.36 21.9v-1.122h-4.706L52.946 21.9H48.24l-1.177-2.245H41.18l-2.353 3.367h4.706l1.176 2.245-3.53 1.122h-2.353l-5.883 5.612v3.367h1.176l4.706-4.49h2.353l2.353 4.49h3.53v2.245H41.18L40.005 36.5h-2.353l-7.06 5.612v4.49l2.353 2.245h5.883v1.122l1.176 2.245v3.367l1.177 5.612h4.706l3.53-5.612v-1.122l-1.176-2.245 3.53-2.245v-2.245z" fill="#34c1ad"/><g fill="#ad3a34"><path d="M61.182 57.364v5.713a35.13 35.13 0 0 0 7-7.53l-1.492-.95c-1.75 1.072-3.593 1.998-5.508 2.77zM45.887 61.2l.713-1.134a38.45 38.45 0 0 1-5.765-.504l.346 1.638h4.706zM4.7 26.4v2.245h2.353v10.1l2.447 1.55 1.082.696 3.53 4.5v4.5l2.353 1.122 1.177 6.734h2.353l3.53-4.5V51.85a35.35 35.35 0 0 1-8.389-9.74H14.12l-1.177-3.367H10.6V36.5h1.95a33.06 33.06 0 0 1-1.63-15.78L9.415 21.9 4.7 26.4z"/></g><g fill="#21abab"><path d="M10.59 38.745h2.353l1.177 3.367h1.024c-1.04-1.793-1.91-3.67-2.603-5.612h-1.95v2.245z"/><path d="M47.064 60.07c-.155 0-.308-.01-.464-.01l-.713 1.134H41.18l-.344-1.637c-6.385-1.05-12.36-3.7-17.304-7.703v1.484l-3.53 4.5H17.65L16.474 51.1l-2.353-1.122v-4.5l-3.53-4.5-1.082-.696-2.447-1.55v-10.1H4.7V26.4l4.706-4.5 1.498-1.2a33.41 33.41 0 0 1 3.581-11.1c-3.754 2.9-6.867 6.486-9.157 10.544s-3.712 8.5-4.183 13.098a33.27 33.27 0 0 0 1.439 13.623c1.42 4.405 3.745 8.497 6.838 12.04s6.892 6.46 11.178 8.6 8.972 3.424 13.786 3.8 9.662-.144 14.26-1.56 8.856-3.7 12.525-6.687v-5.713a37.88 37.88 0 0 1-14.118 2.705zm21.118-4.524c.738-1.088 1.412-2.215 2.018-3.375a37.85 37.85 0 0 1-3.5 2.424l1.492.95z"/></g><path d="M50.23 11.81h-6.694V8.442c4.294.056 6.047 2.155 6.694 3.367z" fill="#96e0ff"/><path d="M23.827 9.194L19.7 1.708h4.118l8.836 7.127-8.836.46v-.1z" fill="#d4d4d4"/><path d="M43.534 11.81h6.694a3.54 3.54 0 0 1 .365.842s0 2.525-4.118 2.525h-8.683l-13.177 8.98H19.12l7.694-8.98H6.72a4.12 4.12 0 0 1-2.554-.721 3.8 3.8 0 0 1-1.505-2.096L1.18 5.075h3.082l5.153 5.05 14.412-.83 8.836-.46 10.718-.393h.153v3.367z" fill="#e3e3e3"/><g fill="#ad3a34"><path d="M13.65 18.543h9.636l-.93 1.084v.752l4.46-5.203H21.18l-4.706 1.122-2.824 2.245zm3.865 6.734l-1.924 2.245h4.412l-1.176-2.245h-1.312z"/></g><g fill="#21abab"><path d="M16.474 16.298l4.706-1.122H8.844a34.79 34.79 0 0 0-2.435 3.367h7.242l2.824-2.245zm8.142 7.856H19.12l3.235-3.776v-.752l-4.84 5.65h1.312l1.176 2.245h1.082l13.177-8.98h8.683c4.118 0 4.118-2.525 4.118-2.525a3.55 3.55 0 0 0-.365-.842v-.01l-.22.01H37.79L24.7 24.1v.064h-.094z"/></g><g fill="#bfbfbf"><path d="M27.145 7.32a2.35 2.35 0 0 1-1.1-.266c-.33-.176-.633-.427-.847-.734l-3.222-4.612H19.7l4.118 7.486v.1l8.836-.46-1.88-1.515h-3.64zm-19.68 6.733a3.64 3.64 0 0 1-2.172-.713 3.37 3.37 0 0 1-1.252-1.837l-1.685-6.43H1.18l1.482 7.284a3.8 3.8 0 0 0 1.505 2.096 4.12 4.12 0 0 0 2.554.721h19.95l1.568-1.122H7.464zm40.776 0h-9.412l-1.177 1.122.02.082.118-.082h8.685c4.118 0 4.118-2.525 4.118-2.525s-.026-.1-.088-.264a2.24 2.24 0 0 1-.836 1.199 2.43 2.43 0 0 1-1.428.467z"/></g><path d="M45.887 10.686h3.53C48.192 9.423 46.5 8.652 44.71 8.53v1.035c0 .298.124.583.345.794s.52.33.832.33z" fill="#b3f5ff"/></g><defs><clipPath id="A"><path fill="#fff" transform="translate(.003 .585)" d="M0 0h75.298v71.83H0z"/></clipPath></defs></svg>
